!!!COM: Debussy, (Achille-)Claude
!!!OTL: La boîte à joujoux (The Toy Box), Ballet for Children (with orchestral accompaniment)
!!!OMV: Tableau 1: Le magasin de jouets (Le soldat anglais)
!!!example: 187x
!!!work: Deb-42
!!!OMD-full: Modéré
!!!OMD: Mouvement de Marche modéré
**kern	**dynam	**kern	**dynam	**kern	**dynam	**kern	**dynam	**kern	**dynam	**kern	**dynam	**kern	**dynam	**kern	**dynam	**kern	**dynam	**kern	**dynam
*grp:A	*grp:A	*grp:A	*grp:A	*grp:B	*grp:B	*grp:A	*grp:A	*grp:A	*grp:A	*grp:B	*grp:B	*grp:A	*grp:A	*grp:B	*grp:B	*grp:B	*grp:B	*grp:B	*grp:B
*part10	*part10	*part9	*part9	*part8	*part8	*part7	*part7	*part5	*	*part5	*part5	*part4	*part4	*part3	*part3	*part2	*part2	*part1	*part1
*staff11	*	*staff10	*	*staff9	*	*staff8	*	*staff6	*	*staff5	*	*staff4	*	*staff3	*	*staff2	*	*staff1	*
*ICstr	*	*ICstr	*	*ICstr	*	*ICstr	*	*ICklav	*	*ICklav	*	*ICidio	*	*ICww	*	*ICww	*	*ICww	*
*Icbass	*	*Icello	*	*Iviola	*	*Ivioln	*	*Ipiano	*	*Ipiano	*	*Isdrum	*	*Ifagot	*	*Iflt	*	*Ipicco	*
*I"Contrabass	*	*I"Violoncello	*	*I"Viola	*	*I"Violin II	*	*I"Piano	*	*	*	*I"Snare Drum	*	*I"Bassoon	*	*I"Flute	*	*I"Piccolo	*
*I'Cb.	*	*I'Vc.	*	*I'Vla.	*	*I'Vln. II	*	*I'Pno.	*	*	*	*I'S. D.	*	*I'Bsn.	*	*I'Fl.	*	*I'Picc.	*
*	*	*	*	*	*	*	*	*	*	*	*	*stria1	*	*	*	*	*	*	*
*clefF4	*	*clefF4	*	*clefC3	*	*clefG2	*	*clefF4	*	*clefG2	*	*clefX	*	*clefF4	*	*clefG2	*	*clefG2	*
*ITrd7c12	*	*	*	*	*	*	*	*	*	*	*	*	*	*	*	*	*	*ITrd-7c-12	*
*k[b-]	*	*k[b-]	*	*k[b-]	*	*k[b-]	*	*k[b-]	*	*k[b-]	*	*k[]	*	*k[b-]	*	*k[b-]	*	*k[b-]	*
*F:	*	*F:	*	*F:	*	*F:	*	*F:	*	*F:	*	*C:	*	*F:	*	*F:	*	*F:	*
*M2/4	*	*M2/4	*	*M2/4	*	*M2/4	*	*M2/4	*	*M2/4	*	*M2/4	*	*M2/4	*	*M2/4	*	*M2/4	*
*	*	*	*	*	*	*	*	*8ba	*	*	*	*	*	*	*	*	*	*	*
=122(176)	=122(176)	=122(176)	=122(176)	=122(176)	=122(176)	=122(176)	=122(176)	=122(176)	=122(176)	=122(176)	=122(176)	=122(176)	=122(176)	=122(176)	=122(176)	=122(176)	=122(176)	=122(176)	=122(176)
*	*	*	*	*	*	*	*	*^	*	*	*	*	*	*	*	*	*	*	*
!	!	!	!	!	!	!	!	!	!	!	!	!	!	!	!	!	!	!	!	!
!LO:TX:a:t=avec le bois de l'archet	!	!	!	!	!	!	!LO:TX:a:B:t=Mouv't de Marche modéré	!	!	!LO:DY:t=%s lointain et raide	!	!	!	!	!	!	!	!	!LO:TX:a:B:t=Mouv't de Marche modéré	!
!	!LO:DY:t=%s lointain	!	!	!	!	!	!	!LO:TX:t=P:problem:missing 8vb line	!	!LO:DY:a	!	!	!	!	!	!	!	!	!LO:TX:a:t=LE SOLDAT ANGLAIS	!
8ryy	4ryy	2ryy	.	2r	.	2ryy	.	8ryy	8ryy	4ryy	2r	.	8ryy	4ryy	2r	.	2r	.	2r	.
8ryy	.	.	.	.	.	.	.	8ryy	8ryy	.	.	.	8ryy	.	.	.	.	.	.	.
8ryy	.	.	.	.	.	.	.	8ryy	8ryy	.	.	.	8ryy	.	.	.	.	.	.	.
8ryy	.	.	.	.	.	.	.	8ryy	8ryy	.	.	.	8ryy	.	.	.	.	.	.	.
=123	=123	=123	=123	=123	=123	=123	=123	=123	=123	=123	=123	=123	=123	=123	=123	=123	=123	=123	=123	=123
8ryy	.	2ryy	.	2r	.	2ryy	.	8ryy	8ryy	.	2r	.	8ryy	.	2r	.	2r	.	2r	.
8ryy	.	.	.	.	.	.	.	8ryy	8ryy	.	.	.	8ryy	.	.	.	.	.	.	.
8ryy	.	.	.	.	.	.	.	8ryy	8ryy	.	.	.	8ryy	.	.	.	.	.	.	.
8ryy	.	.	.	.	.	.	.	8ryy	8ryy	.	.	.	8ryy	.	.	.	.	.	.	.
=124	=124	=124	=124	=124	=124	=124	=124	=124	=124	=124	=124	=124	=124	=124	=124	=124	=124	=124	=124	=124
8ryy	.	2ryy	.	2r	.	2ryy	.	8ryy	8ryy	.	2r	.	8ryy	.	2r	.	2r	.	2r	.
8ryy	.	.	.	.	.	.	.	8ryy	8ryy	.	.	.	8ryy	.	.	.	.	.	.	.
8ryy	.	.	.	.	.	.	.	8ryy	8ryy	.	.	.	8ryy	.	.	.	.	.	.	.
8ryy	.	.	.	.	.	.	.	8ryy	8ryy	.	.	.	8ryy	.	.	.	.	.	.	.
=125	=125	=125	=125	=125	=125	=125	=125	=125	=125	=125	=125	=125	=125	=125	=125	=125	=125	=125	=125	=125
8ryy	.	2ryy	.	2r	.	2ryy	.	8ryy	8ryy	.	2r	.	8ryy	.	2r	.	2r	.	2r	.
8ryy	.	.	.	.	.	.	.	8ryy	8ryy	.	.	.	8ryy	.	.	.	.	.	.	.
8ryy	.	.	.	.	.	.	.	8ryy	8ryy	.	.	.	8ryy	.	.	.	.	.	.	.
8ryy	.	.	.	.	.	.	.	8ryy	8ryy	.	.	.	8ryy	.	.	.	.	.	.	.
*	*	*	*	*	*	*	*	*v	*v	*	*	*	*	*	*	*	*	*	*	*
=126	=126	=126	=126	=126	=126	=126	=126	=126	=126	=126	=126	=126	=126	=126	=126	=126	=126	=126	=126
*	*	*	*	*	*	*	*	*	*	*8va	*	*	*	*	*	*	*	*	*
*	*	*	*	*	*	*	*	*^	*	*	*	*	*	*	*	*	*	*	*
!	!	!	!	!	!	!	!	!	!	!	!	!LO:DY:t=sempre %s très exactement rythmé	!	!	!	!	!	!	!	!LO:DY:t=sempre %s très exactement rythmé
8ryy	.	2ryy	.	2r	.	2ryy	.	8ryy	8ryy	.	(16aaaKL	ppp	8ryy	.	2r	.	2r	.	(16aaaKL	ppp
.	.	.	.	.	.	.	.	.	.	.	8cccc)	.	.	.	.	.	.	.	8cccc)	.
8ryy	.	.	.	.	.	.	.	8ryy	8ryy	.	.	.	8ryy	.	.	.	.	.	.	.
.	.	.	.	.	.	.	.	.	.	.	(16aaaJk	.	.	.	.	.	.	.	(16aaaJk	.
8ryy	.	.	.	.	.	.	.	8ryy	8ryy	.	8cccc'L)	.	8ryy	.	.	.	.	.	8cccc'L)	.
8ryy	.	.	.	.	.	.	.	8ryy	8ryy	.	8aaa'J	.	8ryy	.	.	.	.	.	8aaa'J	.
=127	=127	=127	=127	=127	=127	=127	=127	=127	=127	=127	=127	=127	=127	=127	=127	=127	=127	=127	=127	=127
8ryy	.	2ryy	.	2r	.	2ryy	.	8ryy	8ryy	.	(16fffKL	.	8ryy	.	2r	.	2r	.	(16fffKL	.
.	.	.	.	.	.	.	.	.	.	.	8aaa)	.	.	.	.	.	.	.	8aaa)	.
8ryy	.	.	.	.	.	.	.	8ryy	8ryy	.	.	.	8ryy	.	.	.	.	.	.	.
.	.	.	.	.	.	.	.	.	.	.	(16fffJk	.	.	.	.	.	.	.	(16fffJk	.
8ryy	.	.	.	.	.	.	.	8ryy	8ryy	.	8aaa'L)	.	8ryy	.	.	.	.	.	8aaa'L)	.
8ryy	.	.	.	.	.	.	.	8ryy	8ryy	.	8fff'J	.	8ryy	.	.	.	.	.	8fff'J	.
=128	=128	=128	=128	=128	=128	=128	=128	=128	=128	=128	=128	=128	=128	=128	=128	=128	=128	=128	=128	=128
8ryy	.	2ryy	.	2r	.	2ryy	.	8ryy	8ryy	.	(16dddKL	.	8ryy	.	2r	.	2r	.	(16dddKL	.
.	.	.	.	.	.	.	.	.	.	.	8fff)	.	.	.	.	.	.	.	8fff)	.
8ryy	.	.	.	.	.	.	.	8ryy	8ryy	.	.	.	8ryy	.	.	.	.	.	.	.
.	.	.	.	.	.	.	.	.	.	.	(16dddJk	.	.	.	.	.	.	.	(16dddJk	.
8ryy	.	.	.	.	.	.	.	8ryy	8ryy	.	8fff'L)	.	8ryy	.	.	.	.	.	8fff'L)	.
8ryy	.	.	.	.	.	.	.	8ryy	8ryy	.	(16dddL	.	8ryy	.	.	.	.	.	(16dddL	.
.	.	.	.	.	.	.	.	.	.	.	16fffJJ	.	.	.	.	.	.	.	16fffJJ	.
*	*	*	*	*	*	*	*	*v	*v	*	*	*	*	*	*	*	*	*	*	*
=129	=129	=129	=129	=129	=129	=129	=129	=129	=129	=129	=129	=129	=129	=129	=129	=129	=129	=129	=129
*	*	*	*	*	*	*	*	*^	*	*	*	*	*	*	*	*	*	*	*
8ryy	.	2ryy	.	2r	.	2ryy	.	8ryy	8ryy	.	2ddd)	.	8ryy	.	2r	.	2r	.	2ddd)	.
8ryy	.	.	.	.	.	.	.	8ryy	8ryy	.	.	.	8ryy	.	.	.	.	.	.	.
8ryy	.	.	.	.	.	.	.	8ryy	8ryy	.	.	.	8ryy	.	.	.	.	.	.	.
8ryy	.	.	.	.	.	.	.	8ryy	8ryy	.	.	.	8ryy	.	.	.	.	.	.	.
*	*	*	*	*	*	*	*	*	*	*	*X8va	*	*	*	*	*	*	*	*	*
=130	=130	=130	=130	=130	=130	=130	=130	=130	=130	=130	=130	=130	=130	=130	=130	=130	=130	=130	=130	=130
8ryy	.	2ryy	.	2r	.	2ryy	.	8ryy	8ryy	.	(16cccKL	.	8ryy	.	2r	.	2r	.	(16cccKL	.
.	.	.	.	.	.	.	.	.	.	.	8ddd)	.	.	.	.	.	.	.	8ddd)	.
8ryy	.	.	.	.	.	.	.	8ryy	8ryy	.	.	.	8ryy	.	.	.	.	.	.	.
.	.	.	.	.	.	.	.	.	.	.	(16cccJk	.	.	.	.	.	.	.	(16cccJk	.
8ryy	.	.	.	.	.	.	.	8ryy	8ryy	.	8aa'L)	.	8ryy	.	.	.	.	.	8aa'L)	.
8ryy	.	.	.	.	.	.	.	8ryy	8ryy	.	8ccc'J	.	8ryy	.	.	.	.	.	8ccc'J	.
=131	=131	=131	=131	=131	=131	=131	=131	=131	=131	=131	=131	=131	=131	=131	=131	=131	=131	=131	=131	=131
8ryy	.	2ryy	.	2r	.	2ryy	.	8ryy	8ryy	.	(16aaKL	.	8ryy	.	2r	.	2r	.	(16aaKL	.
.	.	.	.	.	.	.	.	.	.	.	8bb-)	.	.	.	.	.	.	.	8bb-)	.
8ryy	.	.	.	.	.	.	.	8ryy	8ryy	.	.	.	8ryy	.	.	.	.	.	.	.
.	.	.	.	.	.	.	.	.	.	.	(16aaJk	.	.	.	.	.	.	.	(16aaJk	.
8ryy	.	.	.	.	.	.	.	8ryy	8ryy	.	4ff~)	.	8ryy	.	.	.	.	.	4ff~)	.
8ryy	.	.	.	.	.	.	.	8ryy	8ryy	.	.	.	8ryy	.	.	.	.	.	.	.
=132	=132	=132	=132	=132	=132	=132	=132	=132	=132	=132	=132	=132	=132	=132	=132	=132	=132	=132	=132	=132
8ryy	.	2ryy	.	2r	.	2ryy	.	8ryy	8ryy	.	(16ffKL	.	8ryy	.	2r	.	(16ffKL	ppp	2r	.
.	.	.	.	.	.	.	.	.	.	.	8gg)	.	.	.	.	.	8gg)	.	.	.
8ryy	.	.	.	.	.	.	.	8ryy	8ryy	.	.	.	8ryy	.	.	.	.	.	.	.
.	.	.	.	.	.	.	.	.	.	.	16ffJk	.	.	.	.	.	16ffJk	.	.	.
8ryy	.	.	.	.	.	.	.	8ryy	8ryy	.	8ccL	.	8ryy	.	.	.	8ccL	.	.	.
8ryy	.	.	.	.	.	.	.	8ryy	8ryy	.	(16ccL	.	8ryy	.	.	.	(16ccL	.	.	.
.	.	.	.	.	.	.	.	.	.	.	16eeJJ	.	.	.	.	.	16eeJJ	.	.	.
=133	=133	=133	=133	=133	=133	=133	=133	=133	=133	=133	=133	=133	=133	=133	=133	=133	=133	=133	=133	=133
8ryy	.	2ryy	.	2r	.	2ryy	.	8ryy	8ryy	.	2cc)	.	8ryy	.	2r	.	2cc)	.	2r	.
8ryy	.	.	.	.	.	.	.	8ryy	8ryy	.	.	.	8ryy	.	.	.	.	.	.	.
8ryy	.	.	.	.	.	.	.	8ryy	8ryy	.	.	.	8ryy	.	.	.	.	.	.	.
*	*	*	*	*	*	*	*	*v	*v	*	*	*	*	*	*	*	*	*	*	*
*	*	*	*	*	*	*	*	*^	*	*	*	*	*	*	*	*	*	*	*
8ryy	.	.	.	.	.	.	.	8ryy	8ryy	.	.	.	8ryy	.	.	.	.	.	.	.
*	*	*	*	*	*	*	*	*X8ba	*	*	*	*	*	*	*	*	*	*	*	*
*	*	*	*	*	*	*	*	*v	*v	*	*	*	*	*	*	*	*	*	*	*
=134	=134	=134	=134	=134	=134	=134	=134	=134	=134	=134	=134	=134	=134	=134	=134	=134	=134	=134	=134
!	!	!LO:TX:a:t=pizz.	!	!	!LO:DY:t=%s en augmentant peu à peu	!	!	!	!	!	!	!	!	!LO:TX:a:t=1o	!LO:DY:t=%s en augmentant peu à peu	!	!	!	!
2ryy	.	8ryy	4ryy	(16AKL>	pp	8r'yy	.	2ryy	.	2r	.	2ryy	.	(16AKL	pp	2r	.	2r	.
.	.	.	.	8c)	.	.	.	.	.	.	.	.	.	8c)	.	.	.	.	.
!	!	!	!	!	!	!LO:TX:a:t=pizz.	!	!	!	!	!	!	!	!	!	!	!	!	!
.	.	8r'yy	.	.	.	8ryy	4ryy	.	.	.	.	.	.	.	.	.	.	.	.
.	.	.	.	(16AJk	.	.	.	.	.	.	.	.	.	(16AJk	.	.	.	.	.
.	.	8ryy	.	8c'L)	.	8r'yy	.	.	.	.	.	.	.	8c'L)	.	.	.	.	.
.	.	8r'yy	.	8A'J	.	8ryy	.	.	.	.	.	.	.	8A'J	.	.	.	.	.
=135	=135	=135	=135	=135	=135	=135	=135	=135	=135	=135	=135	=135	=135	=135	=135	=135	=135	=135	=135
2ryy	.	8ryy	.	(16FKL>	.	8r'yy	.	2ryy	.	2r	.	2ryy	.	(16FKL	.	2r	.	2r	.
.	.	.	.	8A)	.	.	.	.	.	.	.	.	.	8A)	.	.	.	.	.
.	.	8r'yy	.	.	.	8ryy	.	.	.	.	.	.	.	.	.	.	.	.	.
.	.	.	.	(16FJk	.	.	.	.	.	.	.	.	.	(16FJk	.	.	.	.	.
.	.	8ryy	.	8A'L)	.	8r'yy	.	.	.	.	.	.	.	8A'L)	.	.	.	.	.
.	.	8r'yy	.	8F'J	.	8ryy	.	.	.	.	.	.	.	8F'J	.	.	.	.	.
=136	=136	=136	=136	=136	=136	=136	=136	=136	=136	=136	=136	=136	=136	=136	=136	=136	=136	=136	=136
!LO:TX:a:t=pizz.	!	!	!LO:HP:t=%s poco a poco	!	!	!	!	!	!	!	!	!	!	!	!	!	!	!	!
8ryy	4ryy	8ryy	4ryy	(16DKL	.	8r'yy	.	2ryy	.	2r	.	2ryy	.	(16DKL	.	2r	.	2r	.
.	.	.	.	8F)	.	.	.	.	.	.	.	.	.	8F)	.	.	.	.	.
8r'yy	.	8r'yy	.	.	.	8ryy	.	.	.	.	.	.	.	.	.	.	.	.	.
.	.	.	.	(16DJk	.	.	.	.	.	.	.	.	.	(16DJk	.	.	.	.	.
8ryy	.	8ryy	.	8F'L)	.	8r'yy	.	.	.	.	.	.	.	8F'L)	.	.	.	.	.
8r'yy	.	8r'yy	.	((16DL	.	8ryy	.	.	.	.	.	.	.	(16DL	.	.	.	.	.
.	.	.	.	16FJJ)	.	.	.	.	.	.	.	.	.	16FJJ	.	.	.	.	.
=137	=137	=137	=137	=137	=137	=137	=137	=137	=137	=137	=137	=137	=137	=137	=137	=137	=137	=137	=137
8ryy	.	8ryy	.	2D)	.	8r'yy	.	2ryy	.	2r	.	2ryy	.	2D)	.	2r	.	2r	.
8r'yy	.	8r'yy	.	.	.	8ryy	.	.	.	.	.	.	.	.	.	.	.	.	.
8ryy	.	8ryy	.	.	.	8r'yy	.	.	.	.	.	.	.	.	.	.	.	.	.
8r'yy	.	8r'yy	.	.	.	8ryy	.	.	.	.	.	.	.	.	.	.	.	.	.
=	=	=	=	=	=	=	=	=	=	=	=	=	=	=	=	=	=	=	=
*-	*-	*-	*-	*-	*-	*-	*-	*-	*-	*-	*-	*-	*-	*-	*-	*-	*-	*-	*-
!!!system-decoration: [(s1,s2,s3)]s4[({(s5,s6)})][([(s7,s8)]s9[(s10,s11)])]
!!!CDT: 1862/08/22-1918/03/25
!!!CBL: St Germain-en-Laye, France
!!!CDL: Paris, France
!!!CNT: French
!!!AGN: Stage; Ballet
!!!MCN: Inghelbrecht, Désiré-Émile
!!!MDT: 1919/12/10
!!!MGN: Orchestre du Théâtre du Vaudeville
!!!MLC: Paris, France
!!!MPD: 1919
!!!MPN:
!!!ODT: 1913 (orch. 1919)
!!!PDT: 1920
!!!excerpt-start-measure: 122(176)
!!!excerpt-end-measure: 137(191)
!!!excerpt-start-time: 3:44
!!!excerpt-end-time: 4:02
!!!excerpt-duration-sec: 18
!!!excerpt-time-signature: 2/4
!!!excerpt-tempo-beat: {quarter}
!!!excerpt-tempo-rate: {107}
!!!excerpt-meter-type: duple
!!!excerpt-beat-group: G2
!!!excerpt-beat-subgroup: G2
!!!experiment: 1
!!!EEV: 2020/09/18
!!!ONB: Converted from MusicXML on 2020/09/04
!!!RDF**kern: > = above
!!!RDF**kern: < = below
